X: 1
T: the Torn Jacket
C: Connie O'Connell
M: C
L: 1/8
F: http://www.arcelts.com/bbot1/t741.abc 2011-8-2
K: D
|: "D"F3A  d2ed |"A7"cAAB cde2 | "D"FEFA dfed | "A7"cAGE "D"EDDE |
|  "D"F3A  d2ed |"A7"cAAB cdec | "D"Adde f2ed | "A7"cAGE "D"EDDE :|
|: "D"FAdf a2fa | "G"g3b  gfed |"A7"cAAB cdef | "A7"gfed    cAAG |
|  "D"FAdf a2fa | "G"g3b  gfef |"Em"g2ba gfed | "A7"cAGE "D"EDD2 :|
